projects/packages/my-jetpack/_inc/components/product-cards-section/protect-card/assets/shield-off.svg

<svg fill="none" height="24" viewBox="0 0 21 24" width="21" xmlns="http://www.w3.org/2000/svg"><path clip-rule="evenodd" d="m10.1538 0 10.1539 4.45957v6.64803c0 5.6671-3.7669 11.0329-9.0788 12.7256-.6979.2224-1.45216.2224-2.15015 0-5.31181-1.6927-9.07875-7.0585-9.07875-12.7256v-6.64803z" fill="#a7aaad" fill-rule="evenodd"/><g fill="#fff"><rect height="3" rx="1.5" width="3.04615" x="8.63086" y="15.5"/><path d="m8.69834 7.06333c-.03656-.57604.42079-1.06333.99799-1.06333h.91517c.5772 0 1.0346.48729.998 1.06333l-.3807 5.99997c-.0335.5267-.4703.9367-.998.9367h-.1537c-.52769 0-.96457-.41-.99799-.9367z"/></g></svg>

<svg width="21" height="24" viewBox="0 0 21 24" fill="none" xmlns="http://www.w3.org/2000/svg">
<path fill-rule="evenodd" clip-rule="evenodd" d="M10.1538 0L20.3077 4.45957V11.1076C20.3077 16.7747 16.5408 22.1405 11.2289 23.8332C10.531 24.0556 9.77674 24.0556 9.07875 23.8332C3.76694 22.1405 0 16.7747 0 11.1076V4.45957L10.1538 0Z" fill="#A7AAAD"/>
<rect x="8.63086" y="15.5" width="3.04615" height="3" rx="1.5" fill="white"/>
<path d="M8.69834 7.06333C8.66178 6.48729 9.11913 6 9.69633 6H10.6115C11.1887 6 11.6461 6.48729 11.6095 7.06333L11.2288 13.0633C11.1953 13.59 10.7585 14 10.2308 14H10.0771C9.54941 14 9.11253 13.59 9.07911 13.0633L8.69834 7.06333Z" fill="white"/>
</svg>
